material/.icons/material/food-variant.svg

<svg xmlns="http://www.w3.org/2000/svg" viewBox="0 0 24 24"><path d="M22 18a4 4 0 01-4 4h-3a4 4 0 01-4-4v-2h6.79l2.76-4.77 1.56.9L19.87 16H22v2M9 22H2c0-3 0-6 .33-9.17C2.6 10.3 3.08 7.66 3.6 5H3V3h5v2h-.6c.52 2.66 1 5.3 1.27 7.83C9 16 9 19 9 22z"/></svg>

<?xml version="1.0" encoding="UTF-8"?><!DOCTYPE svg PUBLIC "-//W3C//DTD SVG 1.1//EN" "http://www.w3.org/Graphics/SVG/1.1/DTD/svg11.dtd"><svg xmlns="http://www.w3.org/2000/svg" xmlns:xlink="http://www.w3.org/1999/xlink" version="1.1" id="mdi-food-variant" width="24" height="24" viewBox="0 0 24 24"><path d="M22,18A4,4 0 0,1 18,22H15A4,4 0 0,1 11,18V16H17.79L20.55,11.23L22.11,12.13L19.87,16H22V18M9,22H2C2,19 2,16 2.33,12.83C2.6,10.3 3.08,7.66 3.6,5H3V3H4L7,3H8V5H7.4C7.92,7.66 8.4,10.3 8.67,12.83C9,16 9,19 9,22Z" /></svg>
